X:30
T:Romance d'amour
M:4/4
L:1/4
Q:90
K:G
BBBB|AGGF|EEGB|eeee|dccB|AABc|B^dcB|BAFF|FFGF|E2
